packages/bezier-icons/icons/wallet.svg

<svg width="24" height="24" viewBox="0 0 24 24" fill="none" xmlns="http://www.w3.org/2000/svg">
<path fill-rule="evenodd" clip-rule="evenodd" d="M20 3.00021C20 2.92725 19.992 2.85451 19.9762 2.78328C19.8564 2.24415 19.3222 1.90422 18.7831 2.02403L3.56614 5.40557C2.65106 5.60892 2 6.42054 2 7.35794V18.5C2 19.3284 2.67157 20 3.5 20H20.5C21.3284 20 22 19.3284 22 18.5V7.5C22 6.67157 21.3284 6 20.5 6H20V3.00021ZM11.217 5.7536L18 4.2456V5.7536H11.217ZM4 8H20V10H17C16.4477 10 16 10.4477 16 11V15C16 15.5523 16.4477 16 17 16H20V18H4V8ZM20 13C20 12.4477 19.5523 12 19 12C18.4477 12 18 12.4477 18 13C18 13.5523 18.4477 14 19 14C19.5523 14 20 13.5523 20 13Z" fill="#313234"/>
</svg>

<svg xmlns="http://www.w3.org/2000/svg" width="24" height="24" fill="none" viewBox="0 0 24 24"><path fill="#313234" fill-rule="evenodd" d="M20 3a1.002 1.002 0 0 0-1.217-.976L3.566 5.406A2 2 0 0 0 2 7.358V18.5A1.5 1.5 0 0 0 3.5 20h17a1.5 1.5 0 0 0 1.5-1.5v-11A1.5 1.5 0 0 0 20.5 6H20zm-8.783 2.754L18 4.246v1.508zM4 8h16v2h-3a1 1 0 0 0-1 1v4a1 1 0 0 0 1 1h3v2H4zm16 5a1 1 0 1 0-2 0 1 1 0 0 0 2 0" clip-rule="evenodd"/></svg>
